X: 5022
T: Brian Boru's March
R: jig
M: 6/8
K: Edorian
B|"Em"G FE E2 B|G FE E2 A|"D"F ED D2A|F ED D2 B|
"Em"G FE E2 B|G FE E3|EGA BAG|FEDD2 B:|
"G"D GA BAG|BAG Bcd|"D"D FG AGF|AGF AGF|
"Em"E GA BAG|BAG Bcd|EGA BAG|FEDD2 B:|
"Em"GFE B2B|GFE B2B|"D"FED A2A|FED A2A|
"Em"GFE B2B|GFE B2B|EGA BAG|FEDD2 B:|

